packages/ffe-icons/icons/filled/sm/package.svg

<svg xmlns="http://www.w3.org/2000/svg" height="20" viewBox="0 -960 960 960" width="20"><path d="M228.309-164.001q-27.008 0-45.658-18.65-18.65-18.65-18.65-45.658v-503.382q0-27.008 18.65-45.658 18.65-18.65 45.658-18.65h503.382q27.008 0 45.658 18.65 18.65 18.65 18.65 45.658v503.382q0 27.008-18.65 45.658-18.65 18.65-45.658 18.65H228.309Zm165.878-307.863L480-514.77l85.813 42.906q13.417 6.709 25.801-.849 12.385-7.557 12.385-22.287v-249H356.001v249q0 14.73 12.385 22.287 12.384 7.558 25.801.849Zm-80.188 173.863h140.002q11.069 0 18.534-7.404Q480-312.81 480-323.789q0-10.98-7.465-18.595-7.465-7.615-18.534-7.615H313.999q-11.069 0-18.534 7.404Q288-335.19 288-324.211q0 10.98 7.465 18.595 7.465 7.615 18.534 7.615Z"/></svg>

<svg xmlns="http://www.w3.org/2000/svg" height="20" viewBox="0 -960 960 960" width="20"><path d="M228.31-164q-27.01 0-45.66-18.65Q164-201.3 164-228.31v-503.38q0-27.01 18.65-45.66Q201.3-796 228.31-796h503.38q27.01 0 45.66 18.65Q796-758.7 796-731.69v503.38q0 27.01-18.65 45.66Q758.7-164 731.69-164H228.31Zm165.88-307.86L480-514.77l85.81 42.91q13.42 6.7 25.8-.85Q604-480.27 604-495v-249H356v249q0 14.73 12.39 22.29 12.38 7.55 25.8.85ZM314-298h140q11.07 0 18.53-7.41 7.47-7.4 7.47-18.38 0-10.98-7.47-18.59Q465.07-350 454-350H314q-11.07 0-18.53 7.41-7.47 7.4-7.47 18.38 0 10.98 7.47 18.59Q302.93-298 314-298Z"/></svg>
